X: 9801
T: Denis Murphy's
R: polka
M: 2/4
K: Dmajor
|:f/g/f/e/ d/c/d/B/|AD F>A|G/F/E ed|cB c/B/A|
ff/e/ d>B|AD F2|GE ef|ed d2:|
|:Af f/^e/f|Ag g2|Af- f/^e/f/d/|e/f/e/d/ Bd/B/|
Af- f/^e/f|Ag g>a|ba f/g/a/f/|ed d2:|

